X:1
T:Couleur Caf
C:Serge Gainsbourg, abc file by Bernard Loffet
L:1/8
Q:204
M:4/4
K:C
z6zc/d/|[eC,][c/C,/]f/z/e/C,[dG,]G,zG,|[cC,][G/C,/]G/z/G/C,[GG,]G,zG,|[eC,][c/C,/]f/z/e/C,[dG,]G,zG,|[cC,][G/C,/]G/z/G/C,/G/G,/G/[AD,]z/G/[c/G,/]d/|[eC,][c/C,/]f/z/e/C,[dG,]G,zG,| \
[cC,][G/C,/]G/z/G/C,[GG,]G,zG,|[eC,][c/C,/]f/z/e/C,[dG,]G,zG,|[cC,][G/C,/]G/z/G/C,/G/G,/G/[AD,][Gz]G,|:[cC,]C,/e/zC,C,C,zC,|[dG,]G,/f/zG,G,G,zG,|[e/C,/]f/C,/e/[fz][e/C,/]g/G,G,z[e/G,/]c/| \
C,C,[zz][zC,][zC,][zC,][zz][zC,]:| \
Z:Created with TablEdit http://www.tabledit.com/
